X:1
T:Sunny Day Revised
M:4/4
L:1/8
Q:1/4=120
K:G
V:1
|: "G" G2 B2 d2 e2 | "C" e2 d2 "G" B2 G2 | "Am" A2 c2 "D7" d4 | "G" G4 z4 :|
| "G" g2 f2 "C" e2 d2 | "G" B2 A2 "Em" G B2 | "Am" c2 B2 "D7" A2 F2 | "G" G4 z4 |
| "C" e4 e2 d2 | "Am" c4 d2 F2 | "G" B2 G2 "C" e4 | "Em" G4 "D7" F4 | 
| "G" g2 f2 "C" e2 d2 | "G" B2 A2 "Em" G B2 | "Am" c2 B2 "D7" A2 F2 | "G" G4 G4 |
```

```abc
